X:1
T:Title
%%score { ( 1 3 5 ) | ( 2 4 6 ) }
L:1/8
Q:1/4=112
M:4/4
K:Bb
V:1 treble nm="Grand Piano"
V:3 treble 
V:5 treble 
V:2 treble 
V:4 treble 
V:6 treble 
V:1
 B4 B3 B | [DB]6 F2 | G2 A2 B2 c2 | d4 [DFB]4 | [Fd]4 [Fd]3 [Fd] | [Fc]2 [DFA]2 [DB]2 [DFA]2 | %6
w: R.~E.~DeReef * *||||||
 [FA]4 [=EG]4 | F2 F2 .A2 Ac | c4 [Gc]3 [Gd] | [Ge]6 [Gc]2 | A2 A2 B2 c2 | _d4 =d4 | %12
w: ||||||
 [Fd]4 [Fd]3 [Fd] | [Ec]2 [EG]2 [=EA]2 [EB]2 | [DFB]4 [Ac]4 | D-[D-F][D-=E][DF] ^FG_A=A | B4 B3 B | %17
w: |||||
 [DB]6 F2 | G2 A2 B2 c2 | d4 [DFB]4 | [Fd]4 [Fd]3 [Fd] | [Fc]2 [DFA]2 [DB]2 [DFA]2 | z4 [=EG]4 | %23
w: ||||||
 A,2- [A,F]2 .A2 Ac | c4 [Gc]3 [Gd] | [Ge]6 [Gc]2 | A2 A2 B2 c2 | _d4 =d4 | [Fd]4 [Fd]3 [Fd] | %29
w: ||||||
 [Ec]2 [EG]2 [=EA]2 [EB]2 | [DFB]4 [Ac]4 | [DB]8 |] %32
w: |||
V:2
 [B,DF]4 [B,DF]3 [B,DF] | [B,,B,]6 [D,B,]2 | [E,B,E]2 [F,CE]2[K:treble] [G,DG]2 [A,EF]2 | %3
 [B,DF]4[K:bass] B,,4 | [B,,B,]4 [=B,,_A,]3 [B,,A,] | [C,A,]2 D,2 G,2 A,B, | C4 z2 B,2 | %7
 z4 A,2 A,2 | [F,A,F]4 [E,C]3 [D,=B,] | [C,C]6 [E,C]2 | [F,CF]2 [F,EF]2 [G,DF]2 [A,EF]2 | %11
 [B,=EG]4 [B,F]4 | [B,,B,]4 [=B,,_A,]3 [B,,A,] | [C,G,]2 [C,C]2 [C,C]2 [C,C]2 | F,4 z2 E2 | %15
 z F,=E,F, ^F,G,_A,=A, | [B,DF]4 [B,DF]3 [B,DF] | [B,,B,]6 [D,B,]2 | %18
 [E,B,E]2 [F,CE]2[K:treble] [G,DG]2 [A,EF]2 | [B,DF]4[K:bass] B,,4 | [B,,B,]4 [=B,,_A,]3 [B,,A,] | %21
 [C,A,]2 D,2 G,2 A,B, | C4 z2 B,2 | z4 A,2 A,2 | [F,A,F]4 [E,C]3 [D,=B,] | [C,C]6 [E,C]2 | %26
 [F,CF]2 [F,EF]2 [G,DF]2 [A,EF]2 | [B,=EG]4 [B,F]4 | [B,,B,]4 [=B,,_A,]3 [B,,A,] | %29
 [C,G,]2 [C,C]2 [C,C]2 [C,C]2 | F,4 z2 E2 | B,,8 |] %32
V:3
 x8 | x8 | x8 | x8 | x8 | x8 | z4 C2 z2 | z2 z z/ F/- F F3 | x8 | x8 | x8 | x8 | x8 | x8 | %14
 z4 F2 z2 | .[B,B]2 z2 z4 | x8 | x8 | x8 | x8 | x8 | x8 | [FA]4 C2 z2 | F2 z z/ F/- F F3 | x8 | %25
 x8 | x8 | x8 | x8 | x8 | z4 F2 z2 | x8 |] %32
V:4
 x8 | x8 | x4[K:treble] x4 | x4[K:bass] x4 | x8 | x8 | z4 C,4 | F,2 F,2 z2 z C | x8 | x8 | x8 | %11
 x8 | x8 | x8 | z4 F,4 | B,,4 z4 | x8 | x8 | x4[K:treble] x4 | x4[K:bass] x4 | x8 | x8 | z4 C,4 | %23
 F,2 F,2 z2 z C | x8 | x8 | x8 | x8 | x8 | x8 | z4 F,4 | x8 |] %32
V:5
 x8 | x8 | x8 | x8 | x8 | x8 | x8 | A,4 z4 | x8 | x8 | x8 | x8 | x8 | x8 | x8 | x8 | x8 | x8 | x8 | %19
 x8 | x8 | x8 | x8 | x8 | x8 | x8 | x8 | x8 | x8 | x8 | x8 | x8 |] %32
V:6
 x8 | x8 | x4[K:treble] x4 | x4[K:bass] x4 | x8 | x8 | x8 | z2 z z/ F,/- F, F,3 | x8 | x8 | x8 | %11
 x8 | x8 | x8 | x8 | x8 | x8 | x8 | x4[K:treble] x4 | x4[K:bass] x4 | x8 | x8 | x8 | %23
 z2 z z/ F,/- F, F,3 | x8 | x8 | x8 | x8 | x8 | x8 | x8 | x8 |] %32

